;FLAVOR:Marlin
;TIME:2741
;Filament used: 2.65045m
;Layer height: 0.15
;MINX:88.625
;MINY:48.15
;MINZ:0.3
;MAXX:161.375
;MAXY:101.85
;MAXZ:5.7
;Generated with Cura_SteamEngine 4.4.1
M104 S195
M105
M109 S195
M82 ;absolute extrusion mode
G21       ;metric values
G90       ;absolute positioning
M82       ;set extruder to absolute mode
M106      ;start with the fan on
G28 X0 Y0 ;home X/Y
G28 Z0    ;home Z
G92 E0    ;zero the extruded length
G29       ;initiate auto bed leveling sequence
;start cleaning sequance
G1 X250 Y150 Z15 F4000
G1 X250 Y150 Z0.30 F1000
G1 X1 Y150 Z0.25 E15.0 F2000
G1 X1 Y150 Z0.25 E14.0 F4000
G1 X1 Y1 Z0.25 F16000
G1 X1 Y1 Z0.25 E15.0 F4000
G92 E0
M107      ;start with the fan off
;end cleaning sequance
;G92 X132.4 Y20 ;correct bed origin (G29 changes it)
G92 E0
G92 E0
G1 F1500 E-6.5
;LAYER_COUNT:37
;LAYER:0
M107
G0 F3600 X90.927 Y54.589 Z0.3
;TYPE:SKIRT
G1 F1500 E0
G1 F1800 X91.368 Y53.934 E0.03939
G1 X91.642 Y53.589 E0.06137
G1 X92.283 Y52.827 E0.11105
G1 X92.821 Y52.249 E0.15045
G1 X93.146 Y51.951 E0.17245
G1 X93.899 Y51.299 E0.22214
G1 X94.522 Y50.813 E0.26156
G1 X94.877 Y50.578 E0.2828
G1 X95.725 Y50.049 E0.33266
G1 X96.415 Y49.666 E0.37204
G1 X96.817 Y49.482 E0.39409
G1 X97.733 Y49.095 E0.4437
G1 X98.475 Y48.825 E0.4831
G1 X98.886 Y48.711 E0.50438
G1 X99.851 Y48.471 E0.55399
G1 X100.626 Y48.319 E0.59339
G1 X101.069 Y48.268 E0.61564
G1 X102.063 Y48.183 E0.66541
G1 X102.727 Y48.155 E0.69856
G1 X147.223 Y48.15 E2.91848
G1 X147.823 Y48.173 E2.94843
G1 X148.77 Y48.246 E2.99582
G1 X149.939 Y48.426 E3.05483
G1 X150.906 Y48.651 E3.10436
G1 X151.665 Y48.869 E3.14376
G1 X152.072 Y49.021 E3.16543
G1 X152.998 Y49.397 E3.2153
G1 X153.714 Y49.731 E3.25471
G1 X154.085 Y49.94 E3.27596
G1 X154.936 Y50.452 E3.32551
G1 X155.591 Y50.893 E3.3649
G1 X155.936 Y51.167 E3.38688
G1 X156.698 Y51.808 E3.43656
G1 X157.276 Y52.346 E3.47595
G1 X157.574 Y52.671 E3.49795
G1 X158.226 Y53.424 E3.54765
G1 X158.712 Y54.047 E3.58707
G1 X158.947 Y54.402 E3.60831
G1 X159.476 Y55.25 E3.65817
G1 X159.859 Y55.94 E3.69754
G1 X160.041 Y56.337 E3.71933
G1 X160.428 Y57.251 E3.76885
G1 X160.698 Y57.993 E3.80824
G1 X160.815 Y58.413 E3.82999
G1 X161.055 Y59.38 E3.8797
G1 X161.207 Y60.155 E3.9191
G1 X161.257 Y60.593 E3.9411
G1 X161.342 Y61.585 E3.99077
G1 X161.37 Y62.249 E4.02393
G1 X161.375 Y87.697 E5.29353
G1 X161.352 Y88.298 E5.32354
G1 X161.279 Y89.245 E5.37092
G1 X161.099 Y90.414 E5.42993
G1 X160.874 Y91.381 E5.47947
G1 X160.656 Y92.14 E5.51886
G1 X160.504 Y92.547 E5.54054
G1 X160.128 Y93.473 E5.5904
G1 X159.794 Y94.189 E5.62982
G1 X159.585 Y94.56 E5.65106
G1 X159.073 Y95.411 E5.70061
G1 X158.632 Y96.066 E5.74
G1 X158.358 Y96.411 E5.76198
G1 X157.717 Y97.173 E5.81166
G1 X157.179 Y97.751 E5.85106
G1 X156.854 Y98.049 E5.87306
G1 X156.101 Y98.701 E5.92275
G1 X155.478 Y99.187 E5.96217
G1 X155.123 Y99.422 E5.98341
G1 X154.275 Y99.951 E6.03327
G1 X153.585 Y100.334 E6.07264
G1 X153.183 Y100.518 E6.0947
G1 X152.267 Y100.905 E6.14431
G1 X151.525 Y101.175 E6.18371
G1 X151.114 Y101.289 E6.20498
G1 X150.149 Y101.529 E6.2546
G1 X149.374 Y101.681 E6.294
G1 X148.931 Y101.732 E6.31624
G1 X147.937 Y101.817 E6.36602
G1 X147.273 Y101.845 E6.39917
G1 X102.777 Y101.85 E8.61909
G1 X102.177 Y101.827 E8.64904
G1 X101.23 Y101.754 E8.69643
G1 X100.061 Y101.574 E8.75544
G1 X99.094 Y101.349 E8.80497
G1 X98.335 Y101.131 E8.84437
G1 X97.928 Y100.979 E8.86604
G1 X97.002 Y100.603 E8.91591
G1 X96.286 Y100.269 E8.95532
G1 X95.913 Y100.058 E8.9767
G1 X95.061 Y99.545 E9.02632
G1 X94.406 Y99.104 E9.06571
G1 X94.062 Y98.831 E9.08762
G1 X93.299 Y98.189 E9.13737
G1 X92.721 Y97.651 E9.17677
G1 X92.423 Y97.326 E9.19877
G1 X91.773 Y96.575 E9.24832
G1 X91.287 Y95.952 E9.28774
G1 X91.053 Y95.598 E9.30891
G1 X90.524 Y94.75 E9.35877
G1 X90.141 Y94.06 E9.39815
G1 X89.959 Y93.661 E9.42002
G1 X89.571 Y92.744 E9.4697
G1 X89.3 Y92.003 E9.50906
G1 X89.183 Y91.582 E9.53086
G1 X88.944 Y90.618 E9.58041
G1 X88.793 Y89.843 E9.61981
G1 X88.743 Y89.407 E9.6417
G1 X88.658 Y88.415 E9.69137
G1 X88.63 Y87.751 E9.72453
G1 X88.625 Y62.303 E10.99414
G1 X88.648 Y61.702 E11.02414
G1 X88.721 Y60.755 E11.07153
G1 X88.901 Y59.586 E11.13054
G1 X89.126 Y58.619 E11.18007
G1 X89.344 Y57.86 E11.21947
G1 X89.496 Y57.453 E11.24114
G1 X89.872 Y56.527 E11.291
G1 X90.206 Y55.811 E11.33042
G1 X90.415 Y55.44 E11.35166
G1 X90.927 Y54.589 E11.40121
G0 F3600 X91.27 Y54.795
G1 F1800 X91.7 Y54.157 E11.4396
G1 X91.948 Y53.846 E11.45944
G1 X92.589 Y53.084 E11.50912
G1 X93.114 Y52.522 E11.54749
G1 X93.408 Y52.254 E11.56734
G1 X94.161 Y51.602 E11.61703
G1 X95.088 Y50.917 E11.67453
G1 X95.936 Y50.388 E11.7244
G1 X96.609 Y50.016 E11.76276
G1 X96.973 Y49.85 E11.78272
G1 X97.889 Y49.463 E11.83233
G1 X98.612 Y49.201 E11.8707
G1 X98.983 Y49.099 E11.88989
G1 X99.948 Y48.859 E11.93951
G1 X100.703 Y48.712 E11.97788
G1 X101.104 Y48.667 E11.99801
G1 X102.098 Y48.582 E12.04778
G1 X102.727 Y48.555 E12.07919
G1 X147.223 Y48.55 E14.29911
G1 X147.793 Y48.572 E14.32757
G1 X148.74 Y48.645 E14.37495
G1 X149.848 Y48.816 E14.43089
G1 X150.815 Y49.041 E14.48042
G1 X151.554 Y49.254 E14.51879
G1 X151.922 Y49.392 E14.5384
G1 X152.848 Y49.768 E14.58826
G1 X153.879 Y50.283 E14.64575
G1 X154.73 Y50.795 E14.6953
G1 X155.368 Y51.225 E14.73369
G1 X155.679 Y51.473 E14.75353
G1 X156.441 Y52.114 E14.80321
G1 X157.003 Y52.639 E14.84158
G1 X157.271 Y52.933 E14.86143
G1 X157.923 Y53.686 E14.91112
G1 X158.608 Y54.613 E14.96862
G1 X159.137 Y55.461 E15.01849
G1 X159.509 Y56.134 E15.05685
G1 X159.672 Y56.493 E15.07652
G1 X160.059 Y57.407 E15.12604
G1 X160.322 Y58.13 E15.16442
G1 X160.427 Y58.509 E15.18405
G1 X160.667 Y59.476 E15.23375
G1 X160.813 Y60.232 E15.27217
G1 X160.858 Y60.627 E15.292
G1 X160.943 Y61.619 E15.34167
G1 X160.97 Y62.25 E15.37318
G1 X160.975 Y87.698 E16.64279
G1 X160.953 Y88.268 E16.67125
G1 X160.88 Y89.215 E16.71863
G1 X160.709 Y90.323 E16.77457
G1 X160.484 Y91.29 E16.8241
G1 X160.271 Y92.029 E16.86247
G1 X160.133 Y92.397 E16.88208
G1 X159.757 Y93.323 E16.93194
G1 X159.242 Y94.354 E16.98943
G1 X158.73 Y95.205 E17.03898
G1 X158.3 Y95.843 E17.07737
G1 X158.052 Y96.154 E17.09721
G1 X157.411 Y96.916 E17.14689
G1 X156.886 Y97.478 E17.18526
G1 X156.592 Y97.746 E17.20511
G1 X155.839 Y98.398 E17.2548
G1 X154.912 Y99.083 E17.31231
G1 X154.064 Y99.612 E17.36217
G1 X153.391 Y99.984 E17.40053
G1 X153.027 Y100.15 E17.42049
G1 X152.111 Y100.537 E17.4701
G1 X151.388 Y100.799 E17.50847
G1 X151.017 Y100.901 E17.52767
G1 X150.052 Y101.141 E17.57728
G1 X149.297 Y101.288 E17.61565
G1 X148.896 Y101.333 E17.63578
G1 X147.902 Y101.418 E17.68555
G1 X147.273 Y101.445 E17.71696
G1 X102.777 Y101.45 E19.93688
G1 X102.207 Y101.428 E19.96534
G1 X101.26 Y101.355 E20.01272
G1 X100.152 Y101.184 E20.06866
G1 X99.185 Y100.959 E20.11819
G1 X98.446 Y100.746 E20.15656
G1 X98.078 Y100.608 E20.17617
G1 X97.152 Y100.232 E20.22603
G1 X96.455 Y99.906 E20.26442
G1 X96.119 Y99.716 E20.28367
G1 X95.267 Y99.203 E20.33329
G1 X94.629 Y98.772 E20.3717
G1 X94.32 Y98.525 E20.39144
G1 X93.557 Y97.883 E20.44119
G1 X92.995 Y97.358 E20.47956
G1 X92.726 Y97.064 E20.49944
G1 X92.076 Y96.313 E20.54899
G1 X91.392 Y95.387 E20.60643
G1 X90.863 Y94.539 E20.65629
G1 X90.491 Y93.866 E20.69465
G1 X90.327 Y93.506 E20.71439
G1 X89.939 Y92.589 E20.76407
G1 X89.676 Y91.866 E20.80245
G1 X89.571 Y91.486 E20.82212
G1 X89.332 Y90.522 E20.87167
G1 X89.186 Y89.767 E20.91003
G1 X89.142 Y89.373 E20.92981
G1 X89.057 Y88.381 E20.97948
G1 X89.03 Y87.75 E21.01099
G1 X89.025 Y62.302 E22.2806
G1 X89.047 Y61.732 E22.30906
G1 X89.12 Y60.785 E22.35644
G1 X89.291 Y59.677 E22.41238
G1 X89.516 Y58.71 E22.46191
G1 X89.729 Y57.971 E22.50028
G1 X89.867 Y57.603 E22.51989
G1 X90.243 Y56.677 E22.56975
G1 X90.758 Y55.646 E22.62725
G1 X91.27 Y54.795 E22.67679
G0 F3600 X91.613 Y55.001
G1 F1800 X92.254 Y54.104 E22.7318
G1 X92.895 Y53.342 E22.78148
G1 X93.67 Y52.556 E22.83655
G1 X94.423 Y51.904 E22.88624
G1 X95.3 Y51.257 E22.94061
G1 X96.148 Y50.728 E22.99048
G1 X97.129 Y50.219 E23.04561
G1 X98.045 Y49.832 E23.09522
G1 X99.08 Y49.487 E23.14965
G1 X100.045 Y49.247 E23.19926
G1 X101.138 Y49.065 E23.25454
G1 X102.132 Y48.98 E23.30432
G1 X102.727 Y48.955 E23.33403
G1 X147.223 Y48.95 E25.55394
G1 X147.762 Y48.971 E25.58085
G1 X148.709 Y49.044 E25.62824
G1 X149.757 Y49.205 E25.68114
G1 X150.724 Y49.43 E25.73067
G1 X151.772 Y49.762 E25.78552
G1 X152.698 Y50.138 E25.83538
G1 X153.673 Y50.626 E25.88977
G1 X154.524 Y51.138 E25.93932
G1 X155.421 Y51.779 E25.99433
G1 X156.183 Y52.42 E26.044
G1 X156.969 Y53.195 E26.09907
G1 X157.621 Y53.948 E26.14877
G1 X158.268 Y54.825 E26.20314
G1 X158.797 Y55.673 E26.253
G1 X159.304 Y56.649 E26.30787
G1 X159.691 Y57.563 E26.35739
G1 X160.039 Y58.606 E26.41225
G1 X160.279 Y59.573 E26.46195
G1 X160.459 Y60.661 E26.51697
G1 X160.544 Y61.653 E26.56665
G1 X160.57 Y62.25 E26.59646
G1 X160.575 Y87.698 E27.86606
G1 X160.554 Y88.237 E27.89298
G1 X160.481 Y89.184 E27.94036
G1 X160.32 Y90.232 E27.99326
G1 X160.095 Y91.199 E28.04279
G1 X159.763 Y92.247 E28.09764
G1 X159.387 Y93.173 E28.1475
G1 X158.899 Y94.148 E28.2019
G1 X158.387 Y94.999 E28.25144
G1 X157.746 Y95.896 E28.30645
G1 X157.105 Y96.658 E28.35613
G1 X156.33 Y97.444 E28.4112
G1 X155.577 Y98.096 E28.46089
G1 X154.7 Y98.743 E28.51526
G1 X153.852 Y99.272 E28.56512
G1 X152.871 Y99.781 E28.62026
G1 X151.955 Y100.168 E28.66987
G1 X150.92 Y100.513 E28.7243
G1 X149.955 Y100.753 E28.77391
G1 X148.862 Y100.935 E28.82919
G1 X147.868 Y101.02 E28.87897
G1 X147.273 Y101.045 E28.90868
G1 X102.777 Y101.05 E31.12859
G1 X102.238 Y101.029 E31.1555
G1 X101.291 Y100.956 E31.20289
G1 X100.243 Y100.795 E31.25579
G1 X99.276 Y100.57 E31.30532
G1 X98.228 Y100.238 E31.36017
G1 X97.302 Y99.862 E31.41003
G1 X96.325 Y99.373 E31.46453
G1 X95.473 Y98.86 E31.51415
G1 X94.577 Y98.219 E31.56911
G1 X93.814 Y97.577 E31.61886
G1 X93.028 Y96.802 E31.67393
G1 X92.378 Y96.051 E31.72349
G1 X91.732 Y95.175 E31.77779
G1 X91.203 Y94.327 E31.82765
G1 X90.695 Y93.35 E31.88259
G1 X90.307 Y92.433 E31.93227
G1 X89.96 Y91.389 E31.98715
G1 X89.721 Y90.425 E32.0367
G1 X89.541 Y89.339 E32.09162
G1 X89.456 Y88.347 E32.1413
G1 X89.43 Y87.75 E32.17111
G1 X89.425 Y62.302 E33.44071
G1 X89.446 Y61.763 E33.46762
G1 X89.519 Y60.816 E33.51501
G1 X89.68 Y59.768 E33.56791
G1 X89.905 Y58.801 E33.61744
G1 X90.237 Y57.753 E33.67229
G1 X90.613 Y56.827 E33.72215
G1 X91.101 Y55.852 E33.77654
G1 X91.613 Y55.001 E33.82609
G0 F3600 X91.956 Y55.207
G1 F1800 X92.56 Y54.361 E33.87795
G1 X93.201 Y53.599 E33.92763
G1 X93.932 Y52.858 E33.97956
G1 X94.685 Y52.206 E34.02925
G1 X95.512 Y51.596 E34.08052
G1 X96.36 Y51.067 E34.13039
G1 X97.284 Y50.587 E34.18234
G1 X98.2 Y50.2 E34.23195
G1 X99.176 Y49.875 E34.28327
G1 X100.141 Y49.635 E34.33288
G1 X101.172 Y49.464 E34.38502
G1 X102.166 Y49.379 E34.43479
G1 X102.727 Y49.355 E34.4628
G1 X147.223 Y49.35 E36.68272
G1 X147.731 Y49.37 E36.70808
G1 X148.678 Y49.443 E36.75547
G1 X149.667 Y49.595 E36.80539
G1 X150.634 Y49.82 E36.85492
G1 X151.621 Y50.133 E36.90658
G1 X152.547 Y50.509 E36.95644
G1 X153.467 Y50.969 E37.00776
G1 X154.318 Y51.481 E37.05731
G1 X155.164 Y52.085 E37.10917
G1 X155.926 Y52.726 E37.15884
G1 X156.667 Y53.457 E37.21077
G1 X157.319 Y54.21 E37.26047
G1 X157.929 Y55.037 E37.31174
G1 X158.458 Y55.885 E37.3616
G1 X158.936 Y56.805 E37.41332
G1 X159.323 Y57.719 E37.46284
G1 X159.651 Y58.702 E37.51454
G1 X159.891 Y59.669 E37.56425
G1 X160.061 Y60.696 E37.61619
G1 X160.146 Y61.688 E37.66586
G1 X160.17 Y62.25 E37.69392
G1 X160.175 Y87.698 E38.96353
G1 X160.155 Y88.206 E38.98889
G1 X160.082 Y89.153 E39.03628
G1 X159.93 Y90.142 E39.0862
G1 X159.705 Y91.109 E39.13573
G1 X159.392 Y92.096 E39.18739
G1 X159.016 Y93.022 E39.23725
G1 X158.556 Y93.942 E39.28857
G1 X158.044 Y94.793 E39.33812
G1 X157.44 Y95.639 E39.38998
G1 X156.799 Y96.401 E39.43965
G1 X156.068 Y97.142 E39.49158
G1 X155.315 Y97.794 E39.54128
G1 X154.488 Y98.404 E39.59255
G1 X153.64 Y98.933 E39.64241
G1 X152.716 Y99.413 E39.69436
G1 X151.8 Y99.8 E39.74397
G1 X150.824 Y100.125 E39.79529
G1 X149.859 Y100.365 E39.8449
G1 X148.828 Y100.536 E39.89704
G1 X147.834 Y100.621 E39.94681
G1 X147.273 Y100.645 E39.97483
G1 X102.777 Y100.65 E42.19474
G1 X102.269 Y100.63 E42.2201
G1 X101.322 Y100.557 E42.26749
G1 X100.333 Y100.405 E42.31741
G1 X99.366 Y100.18 E42.36694
G1 X98.379 Y99.867 E42.4186
G1 X97.453 Y99.491 E42.46846
G1 X96.532 Y99.03 E42.51985
G1 X95.68 Y98.517 E42.56946
G1 X94.835 Y97.913 E42.62128
G1 X94.072 Y97.271 E42.67103
G1 X93.331 Y96.54 E42.72296
G1 X92.681 Y95.789 E42.77251
G1 X92.071 Y94.963 E42.82374
G1 X91.542 Y94.115 E42.87361
G1 X91.064 Y93.194 E42.92538
G1 X90.676 Y92.277 E42.97505
G1 X90.348 Y91.293 E43.0268
G1 X90.109 Y90.329 E43.07635
G1 X89.939 Y89.304 E43.12819
G1 X89.854 Y88.312 E43.17786
G1 X89.83 Y87.75 E43.20592
G1 X89.825 Y62.302 E44.47553
G1 X89.845 Y61.794 E44.50089
G1 X89.918 Y60.847 E44.54828
G1 X90.07 Y59.858 E44.5982
G1 X90.295 Y58.891 E44.64773
G1 X90.608 Y57.904 E44.69939
G1 X90.984 Y56.978 E44.74925
G1 X91.444 Y56.058 E44.80057
G1 X91.956 Y55.207 E44.85012
G0 F3600 X92.298 Y55.414
G1 F1800 X92.866 Y54.619 E44.89886
G1 X93.507 Y53.857 E44.94854
G1 X94.194 Y53.161 E44.99733
G1 X94.947 Y52.509 E45.04702
G1 X95.723 Y51.936 E45.09515
G1 X96.571 Y51.407 E45.14501
G1 X97.44 Y50.956 E45.19386
G1 X98.356 Y50.569 E45.24347
G1 X99.273 Y50.263 E45.2917
G1 X100.238 Y50.023 E45.34131
G1 X101.206 Y49.863 E45.39026
G1 X102.2 Y49.778 E45.44003
G1 X102.727 Y49.755 E45.46635
G1 X147.223 Y49.75 E47.68626
G1 X147.701 Y49.768 E47.71013
G1 X148.648 Y49.841 E47.75751
G1 X149.576 Y49.984 E47.80436
G1 X150.543 Y50.209 E47.85389
G1 X151.471 Y50.504 E47.90247
G1 X152.397 Y50.88 E47.95233
G1 X153.26 Y51.311 E48.00046
G1 X154.111 Y51.823 E48.05001
G1 X154.906 Y52.391 E48.09875
G1 X155.668 Y53.032 E48.14843
G1 X156.364 Y53.719 E48.19722
G1 X157.016 Y54.472 E48.24691
G1 X157.589 Y55.248 E48.29504
G1 X158.118 Y56.096 E48.3449
G1 X158.567 Y56.961 E48.39353
G1 X158.954 Y57.875 E48.44304
G1 X159.262 Y58.799 E48.49164
G1 X159.502 Y59.766 E48.54134
G1 X159.662 Y60.73 E48.5901
G1 X159.747 Y61.722 E48.63977
G1 X159.77 Y62.25 E48.66614
G1 X159.775 Y87.698 E49.93574
G1 X159.757 Y88.176 E49.95961
G1 X159.684 Y89.123 E50.00699
G1 X159.541 Y90.051 E50.05384
G1 X159.316 Y91.018 E50.10337
G1 X159.021 Y91.946 E50.15195
G1 X158.645 Y92.872 E50.20181
G1 X158.214 Y93.735 E50.24994
G1 X157.702 Y94.586 E50.29949
G1 X157.134 Y95.381 E50.34823
G1 X156.493 Y96.143 E50.39791
G1 X155.806 Y96.839 E50.4467
G1 X155.053 Y97.491 E50.49639
G1 X154.277 Y98.064 E50.54452
G1 X153.429 Y98.593 E50.59438
G1 X152.56 Y99.044 E50.64323
G1 X151.644 Y99.431 E50.69284
G1 X150.727 Y99.737 E50.74107
G1 X149.762 Y99.977 E50.79068
G1 X148.794 Y100.137 E50.83963
G1 X147.8 Y100.222 E50.8894
G1 X147.273 Y100.245 E50.91572
G1 X102.777 Y100.25 E53.13563
G1 X102.299 Y100.232 E53.1595
G1 X101.352 Y100.159 E53.20688
G1 X100.424 Y100.016 E53.25373
G1 X99.457 Y99.791 E53.30326
G1 X98.529 Y99.496 E53.35184
G1 X97.603 Y99.12 E53.4017
G1 X96.738 Y98.687 E53.44996
G1 X95.886 Y98.174 E53.49958
G1 X95.092 Y97.607 E53.54825
G1 X94.329 Y96.965 E53.598
G1 X93.633 Y96.278 E53.64679
G1 X92.983 Y95.527 E53.69635
G1 X92.411 Y94.752 E53.7444
G1 X91.882 Y93.904 E53.79427
G1 X91.432 Y93.038 E53.84296
G1 X91.044 Y92.121 E53.89263
G1 X90.736 Y91.197 E53.94122
G1 X90.497 Y90.233 E53.99077
G1 X90.338 Y89.27 E54.03947
G1 X90.253 Y88.278 E54.08914
G1 X90.23 Y87.75 E54.11551
G1 X90.225 Y62.302 E55.38511
G1 X90.243 Y61.824 E55.40898
G1 X90.316 Y60.877 E55.45636
G1 X90.459 Y59.949 E55.50321
G1 X90.684 Y58.982 E55.55274
G1 X90.979 Y58.054 E55.60132
G1 X91.355 Y57.128 E55.65118
G1 X91.786 Y56.265 E55.69931
G1 X92.298 Y55.414 E55.74886
G0 F3600 X92.641 Y55.62
G1 F1800 X93.173 Y54.876 E55.79449
G1 X93.814 Y54.114 E55.84417
G1 X94.455 Y53.463 E55.88975
G1 X95.208 Y52.811 E55.93944
G1 X95.935 Y52.275 E55.9845
G1 X96.783 Y51.746 E56.03437
G1 X97.596 Y51.324 E56.08007
G1 X98.512 Y50.937 E56.12968
G1 X99.369 Y50.651 E56.17475
G1 X100.334 Y50.411 E56.22436
G1 X101.24 Y50.261 E56.27018
G1 X102.234 Y50.176 E56.31995
G1 X102.727 Y50.155 E56.34457
G1 X147.223 Y50.15 E58.56448
G1 X147.67 Y50.167 E58.5868
