;FLAVOR:Marlin
;TIME:4636
;Filament used: 4.49178m
;Layer height: 0.15
;MINX:88.625
;MINY:37.042
;MINZ:0.3
;MAXX:161.375
;MAXY:112.958
;MAXZ:17.4
;Generated with Cura_SteamEngine 4.4.1
M104 S195
M105
M109 S195
M82 ;absolute extrusion mode
G21       ;metric values
G90       ;absolute positioning
M82       ;set extruder to absolute mode
M106      ;start with the fan on
G28 X0 Y0 ;home X/Y
G28 Z0    ;home Z
G92 E0    ;zero the extruded length
G29       ;initiate auto bed leveling sequence
;start cleaning sequance
G1 X250 Y150 Z15 F4000
G1 X250 Y150 Z0.30 F1000
G1 X1 Y150 Z0.25 E15.0 F2000
G1 X1 Y150 Z0.25 E14.0 F4000
G1 X1 Y1 Z0.25 F16000
G1 X1 Y1 Z0.25 E15.0 F4000
G92 E0
M107      ;start with the fan off
;end cleaning sequance
;G92 X132.4 Y20 ;correct bed origin (G29 changes it)
G92 E0
G92 E0
G1 F1500 E-6.5
;LAYER_COUNT:115
;LAYER:0
M107
G0 F3600 X90.458 Y55.357 Z0.3
;TYPE:SKIRT
G1 F1500 E0
G1 F1800 X90.978 Y54.507 E0.04971
G1 X91.424 Y53.855 E0.08912
G1 X91.692 Y53.522 E0.11045
G1 X92.337 Y52.764 E0.1601
G1 X92.878 Y52.189 E0.19949
G1 X93.203 Y51.895 E0.22136
G1 X93.962 Y51.245 E0.27121
G1 X94.587 Y50.762 E0.31062
G1 X94.944 Y50.529 E0.33189
G1 X95.791 Y50.007 E0.38152
G1 X96.483 Y49.627 E0.42091
G1 X96.895 Y49.442 E0.44344
G1 X97.816 Y49.06 E0.49319
G1 X98.559 Y48.795 E0.53254
G1 X98.971 Y48.683 E0.55384
G1 X99.939 Y48.449 E0.60353
G1 X100.715 Y48.303 E0.64292
G1 X101.154 Y48.256 E0.66495
G1 X102.148 Y48.177 E0.7147
G1 X102.765 Y48.152 E0.7455
G1 X111.939 Y48.15 E1.2032
G1 X113.416 Y44.735 E1.38882
G1 X113.653 Y44.236 E1.41639
G1 X114.069 Y43.435 E1.46142
G1 X114.468 Y42.754 E1.50079
G1 X114.81 Y42.273 E1.53024
G1 X115.291 Y41.648 E1.56958
G1 X115.803 Y41.047 E1.60897
G1 X116.142 Y40.711 E1.63279
G1 X116.721 Y40.169 E1.67235
G1 X117.324 Y39.659 E1.71175
G1 X117.731 Y39.368 E1.73672
G1 X118.388 Y38.931 E1.77608
G1 X119.067 Y38.528 E1.81548
G1 X119.552 Y38.293 E1.84236
G1 X120.273 Y37.974 E1.8817
G1 X121.01 Y37.691 E1.92108
G1 X121.472 Y37.556 E1.9451
G1 X122.236 Y37.358 E1.98447
G1 X123.01 Y37.199 E2.02389
G1 X123.522 Y37.138 E2.04962
G1 X124.31 Y37.07 E2.08908
G1 X125.1 Y37.042 E2.12852
G1 X125.563 Y37.063 E2.15164
G1 X126.351 Y37.122 E2.19106
G1 X127.135 Y37.221 E2.23049
G1 X127.67 Y37.335 E2.25778
G1 X128.434 Y37.527 E2.29708
G1 X129.189 Y37.758 E2.33647
G1 X129.637 Y37.936 E2.36052
G1 X130.361 Y38.25 E2.39989
G1 X131.068 Y38.601 E2.43927
G1 X131.529 Y38.88 E2.46615
G1 X132.189 Y39.312 E2.50551
G1 X132.827 Y39.777 E2.5449
G1 X133.191 Y40.091 E2.56888
G1 X133.775 Y40.627 E2.60843
G1 X134.329 Y41.19 E2.64783
G1 X134.649 Y41.574 E2.67277
G1 X135.133 Y42.194 E2.71201
G1 X135.587 Y42.841 E2.75144
G1 X135.85 Y43.291 E2.77745
G1 X136.226 Y43.988 E2.81696
G1 X136.519 Y44.592 E2.85045
G1 X138.06 Y48.15 E3.04389
G1 X146.965 Y48.15 E3.48817
G1 X147.44 Y48.164 E3.51187
G1 X148.685 Y48.24 E3.5741
G1 X149.47 Y48.328 E3.61351
G1 X150.028 Y48.441 E3.64192
G1 X150.996 Y48.673 E3.69158
G1 X151.754 Y48.895 E3.73098
G1 X152.149 Y49.046 E3.75208
G1 X153.069 Y49.425 E3.80172
G1 X153.783 Y49.762 E3.84111
G1 X154.168 Y49.983 E3.86326
G1 X155.018 Y50.503 E3.91297
G1 X155.67 Y50.949 E3.95238
G1 X156.003 Y51.217 E3.97371
G1 X156.761 Y51.862 E4.02336
G1 X157.336 Y52.403 E4.06275
G1 X157.63 Y52.728 E4.08462
G1 X158.28 Y53.487 E4.13447
G1 X158.763 Y54.112 E4.17388
G1 X158.996 Y54.469 E4.19515
G1 X159.518 Y55.316 E4.24478
G1 X159.898 Y56.008 E4.28417
G1 X160.082 Y56.417 E4.30654
G1 X160.464 Y57.337 E4.35624
G1 X160.729 Y58.081 E4.39565
G1 X160.842 Y58.497 E4.41715
G1 X161.076 Y59.466 E4.46689
G1 X161.222 Y60.242 E4.50628
G1 X161.269 Y60.678 E4.52816
G1 X161.348 Y61.67 E4.57781
G1 X161.373 Y62.262 E4.60737
G1 X161.375 Y62.848 E4.6366
G1 X161.375 Y87.537 E5.86834
G1 X161.358 Y88.052 E5.89405
G1 X161.282 Y89.2 E5.95145
G1 X161.19 Y89.985 E5.99088
G1 X161.085 Y90.499 E6.01705
G1 X160.854 Y91.465 E6.06661
G1 X160.632 Y92.223 E6.10601
G1 X160.48 Y92.623 E6.12736
G1 X160.1 Y93.545 E6.17711
G1 X159.762 Y94.259 E6.21652
G1 X159.542 Y94.643 E6.2386
G1 X159.022 Y95.493 E6.28832
G1 X158.576 Y96.145 E6.32773
G1 X158.308 Y96.478 E6.34905
G1 X157.663 Y97.236 E6.39871
G1 X157.122 Y97.811 E6.4381
G1 X156.796 Y98.106 E6.46003
G1 X156.038 Y98.755 E6.50981
G1 X155.413 Y99.238 E6.54922
G1 X155.06 Y99.469 E6.57027
G1 X154.212 Y99.992 E6.61997
G1 X153.519 Y100.372 E6.65941
G1 X153.105 Y100.558 E6.68205
G1 X152.184 Y100.94 E6.73179
G1 X151.441 Y101.205 E6.77115
G1 X151.029 Y101.317 E6.79245
G1 X150.061 Y101.551 E6.84213
G1 X149.285 Y101.697 E6.88153
G1 X148.846 Y101.744 E6.90356
G1 X147.852 Y101.823 E6.9533
G1 X147.235 Y101.848 E6.98411
G1 X138.061 Y101.85 E7.4418
G1 X136.584 Y105.265 E7.62743
G1 X136.347 Y105.764 E7.65499
G1 X135.931 Y106.565 E7.70002
G1 X135.532 Y107.246 E7.7394
G1 X135.19 Y107.727 E7.76884
G1 X134.709 Y108.352 E7.80819
G1 X134.197 Y108.953 E7.84758
G1 X133.858 Y109.289 E7.87139
G1 X133.279 Y109.831 E7.91096
G1 X132.676 Y110.341 E7.95036
G1 X132.269 Y110.632 E7.97532
G1 X131.612 Y111.069 E8.01469
G1 X130.933 Y111.472 E8.05408
G1 X130.448 Y111.707 E8.08097
G1 X129.727 Y112.026 E8.1203
G1 X128.99 Y112.309 E8.15969
G1 X128.528 Y112.444 E8.1837
G1 X127.764 Y112.642 E8.22308
G1 X126.99 Y112.801 E8.2625
G1 X126.478 Y112.862 E8.28822
G1 X125.69 Y112.93 E8.32768
G1 X124.9 Y112.958 E8.36712
G1 X124.437 Y112.937 E8.39024
G1 X123.649 Y112.878 E8.42967
G1 X122.865 Y112.779 E8.46909
G1 X122.33 Y112.665 E8.49638
G1 X121.566 Y112.473 E8.53568
G1 X120.811 Y112.242 E8.57507
G1 X120.363 Y112.064 E8.59912
G1 X119.639 Y111.75 E8.6385
G1 X118.932 Y111.399 E8.67788
G1 X118.471 Y111.12 E8.70476
G1 X117.811 Y110.688 E8.74411
G1 X117.173 Y110.223 E8.7835
G1 X116.809 Y109.909 E8.80748
G1 X116.225 Y109.373 E8.84703
G1 X115.671 Y108.81 E8.88644
G1 X115.349 Y108.424 E8.91152
G1 X114.863 Y107.801 E8.95094
G1 X114.409 Y107.154 E8.99037
G1 X114.147 Y106.703 E9.01639
G1 X113.773 Y106.009 E9.05572
G1 X113.481 Y105.408 E9.08906
G1 X111.94 Y101.85 E9.2825
G1 X103.035 Y101.85 E9.72677
G1 X102.56 Y101.836 E9.75048
G1 X101.315 Y101.76 E9.81271
G1 X100.53 Y101.672 E9.85212
G1 X99.972 Y101.559 E9.88052
G1 X99.004 Y101.327 E9.93019
G1 X98.246 Y101.105 E9.96959
G1 X97.85 Y100.954 E9.99073
G1 X96.928 Y100.574 E10.04049
G1 X96.214 Y100.236 E10.0799
G1 X95.826 Y100.014 E10.1022
G1 X94.977 Y99.494 E10.15187
G1 X94.325 Y99.048 E10.19128
G1 X93.995 Y98.782 E10.21243
G1 X93.236 Y98.136 E10.26215
G1 X92.662 Y97.594 E10.30154
G1 X92.366 Y97.268 E10.32351
G1 X91.718 Y96.511 E10.37322
G1 X91.236 Y95.886 E10.4126
G1 X91.003 Y95.53 E10.43382
G1 X90.48 Y94.681 E10.48357
G1 X90.1 Y93.989 E10.52296
G1 X89.916 Y93.578 E10.54543
G1 X89.534 Y92.657 E10.59517
G1 X89.269 Y91.914 E10.63453
G1 X89.156 Y91.498 E10.65603
G1 X88.923 Y90.532 E10.70561
G1 X88.777 Y89.756 E10.745
G1 X88.731 Y89.322 E10.76678
G1 X88.652 Y88.33 E10.81642
G1 X88.627 Y87.733 E10.84623
G1 X88.625 Y87.031 E10.88126
G1 X88.625 Y62.587 E12.10077
G1 X88.639 Y62.122 E12.12398
G1 X88.715 Y60.85 E12.18756
G1 X88.802 Y60.065 E12.22696
G1 X88.915 Y59.501 E12.25566
G1 X89.146 Y58.535 E12.30521
G1 X89.368 Y57.777 E12.34462
G1 X89.52 Y57.377 E12.36596
G1 X89.9 Y56.455 E12.41572
G1 X90.238 Y55.741 E12.45513
G1 X90.458 Y55.357 E12.47721
G0 F3600 X90.8 Y55.565
G1 F1800 X91.32 Y54.715 E12.52692
G1 X91.754 Y54.081 E12.56525
G1 X91.996 Y53.781 E12.58448
G1 X92.641 Y53.023 E12.63414
G1 X93.169 Y52.464 E12.6725
G1 X93.464 Y52.198 E12.69232
G1 X94.223 Y51.548 E12.74217
G1 X95.154 Y50.869 E12.79966
G1 X96.001 Y50.347 E12.8493
G1 X96.675 Y49.978 E12.88763
G1 X97.048 Y49.812 E12.908
G1 X97.969 Y49.43 E12.95775
G1 X98.694 Y49.172 E12.99614
G1 X99.065 Y49.072 E13.01531
G1 X100.033 Y48.838 E13.06499
G1 X100.789 Y48.697 E13.10336
G1 X101.186 Y48.654 E13.12328
G1 X102.18 Y48.575 E13.17303
G1 X102.765 Y48.552 E13.20224
G1 X112.202 Y48.55 E13.67305
G1 X113.783 Y44.894 E13.87177
G1 X114.008 Y44.42 E13.89795
G1 X114.424 Y43.619 E13.94298
G1 X114.813 Y42.956 E13.98133
G1 X115.127 Y42.517 E14.00826
G1 X115.608 Y41.892 E14.04761
G1 X116.108 Y41.307 E14.086
G1 X116.415 Y41.003 E14.10755
G1 X116.994 Y40.461 E14.14712
G1 X117.582 Y39.965 E14.1855
G1 X117.953 Y39.702 E14.20819
G1 X118.61 Y39.265 E14.24755
G1 X119.271 Y38.872 E14.28592
G1 X119.714 Y38.659 E14.31044
G1 X120.435 Y38.34 E14.34978
G1 X121.154 Y38.066 E14.38817
G1 X121.573 Y37.944 E14.40994
G1 X122.337 Y37.746 E14.44931
G1 X123.09 Y37.592 E14.48766
G1 X123.557 Y37.536 E14.51112
G1 X124.345 Y37.468 E14.55058
G1 X125.113 Y37.442 E14.58892
G1 X125.534 Y37.462 E14.60995
G1 X126.322 Y37.521 E14.64937
G1 X127.085 Y37.618 E14.68774
G1 X127.573 Y37.723 E14.71265
G1 X128.337 Y37.915 E14.75195
G1 X129.072 Y38.141 E14.79031
G1 X129.477 Y38.303 E14.81208
G1 X130.201 Y38.617 E14.85145
G1 X130.89 Y38.959 E14.88982
G1 X131.31 Y39.214 E14.91434
G1 X131.97 Y39.646 E14.95369
G1 X132.59 Y40.101 E14.99206
G1 X132.921 Y40.386 E15.01385
G1 X133.505 Y40.922 E15.0534
G1 X134.044 Y41.471 E15.09178
G1 X134.334 Y41.82 E15.11442
G1 X134.818 Y42.44 E15.15366
G1 X135.259 Y43.07 E15.19203
G1 X135.498 Y43.481 E15.21575
G1 X135.874 Y44.178 E15.25526
G1 X136.152 Y44.751 E15.28703
G1 X137.797 Y48.55 E15.49357
G1 X146.965 Y48.55 E15.95096
G1 X147.416 Y48.564 E15.97347
G1 X148.661 Y48.64 E16.0357
G1 X149.425 Y48.726 E16.07406
G1 X149.935 Y48.83 E16.10003
G1 X150.903 Y49.062 E16.14969
G1 X151.997 Y49.416 E16.20705
G1 X152.917 Y49.795 E16.2567
G1 X153.612 Y50.124 E16.29506
G1 X153.96 Y50.325 E16.31511
G1 X154.81 Y50.845 E16.36482
G1 X155.444 Y51.279 E16.40315
G1 X155.744 Y51.521 E16.42238
G1 X156.502 Y52.166 E16.47204
G1 X157.061 Y52.694 E16.5104
G1 X157.327 Y52.989 E16.53022
G1 X157.977 Y53.748 E16.58007
G1 X158.656 Y54.679 E16.63756
G1 X159.178 Y55.526 E16.6872
G1 X159.547 Y56.2 E16.72553
G1 X159.712 Y56.57 E16.74574
G1 X160.094 Y57.49 E16.79544
G1 X160.352 Y58.215 E16.83384
G1 X160.453 Y58.591 E16.85326
G1 X160.687 Y59.56 E16.90299
G1 X160.829 Y60.316 E16.94137
G1 X160.871 Y60.71 E16.96114
G1 X160.95 Y61.702 E17.01078
G1 X160.973 Y62.264 E17.03885
G1 X160.975 Y62.85 E17.06808
G1 X160.975 Y87.537 E18.29972
G1 X160.959 Y88.026 E18.32413
G1 X160.883 Y89.174 E18.38153
G1 X160.792 Y89.938 E18.41992
G1 X160.696 Y90.406 E18.44375
G1 X160.465 Y91.372 E18.4933
G1 X160.248 Y92.11 E18.53168
G1 X160.11 Y92.471 E18.55096
G1 X159.73 Y93.393 E18.60071
G1 X159.4 Y94.088 E18.6391
G1 X159.2 Y94.435 E18.65908
G1 X158.68 Y95.285 E18.70879
G1 X158.246 Y95.919 E18.74712
G1 X158.004 Y96.219 E18.76635
G1 X157.359 Y96.977 E18.81601
G1 X156.831 Y97.536 E18.85437
G1 X156.536 Y97.802 E18.87419
G1 X155.778 Y98.451 E18.92397
G1 X154.85 Y99.128 E18.98128
G1 X154.002 Y99.651 E19.03099
G1 X153.327 Y100.021 E19.06939
G1 X152.952 Y100.188 E19.08987
G1 X152.031 Y100.57 E19.13962
G1 X151.306 Y100.828 E19.17801
G1 X150.935 Y100.928 E19.19718
G1 X149.967 Y101.162 E19.24686
G1 X149.211 Y101.303 E19.28523
G1 X148.814 Y101.346 E19.30515
G1 X147.82 Y101.425 E19.3549
G1 X147.235 Y101.448 E19.38411
G1 X137.798 Y101.45 E19.85492
G1 X136.217 Y105.106 E20.05364
G1 X135.992 Y105.58 E20.07982
G1 X135.576 Y106.381 E20.12485
G1 X135.187 Y107.044 E20.1632
G1 X134.873 Y107.483 E20.19013
G1 X134.392 Y108.108 E20.22948
G1 X133.892 Y108.693 E20.26787
G1 X133.585 Y108.997 E20.28942
G1 X133.006 Y109.539 E20.32899
G1 X132.418 Y110.035 E20.36737
G1 X132.047 Y110.298 E20.39006
G1 X131.39 Y110.735 E20.42943
G1 X130.729 Y111.128 E20.46779
G1 X130.286 Y111.341 E20.49231
G1 X129.565 Y111.66 E20.53165
G1 X128.846 Y111.934 E20.57004
G1 X128.427 Y112.056 E20.59181
G1 X127.663 Y112.254 E20.63118
G1 X126.91 Y112.408 E20.66953
G1 X126.443 Y112.464 E20.69299
G1 X125.655 Y112.532 E20.73245
G1 X124.887 Y112.558 E20.77079
G1 X124.466 Y112.538 E20.79182
G1 X123.678 Y112.479 E20.83124
G1 X122.915 Y112.382 E20.86962
G1 X122.427 Y112.277 E20.89452
G1 X121.663 Y112.085 E20.93382
G1 X120.928 Y111.859 E20.97218
G1 X120.523 Y111.697 E20.99395
G1 X119.799 Y111.383 E21.03332
G1 X119.11 Y111.041 E21.07169
G1 X118.69 Y110.786 E21.09621
G1 X118.03 Y110.354 E21.13556
G1 X117.41 Y109.899 E21.17393
G1 X117.079 Y109.614 E21.19572
G1 X116.495 Y109.078 E21.23527
G1 X115.956 Y108.529 E21.27365
G1 X115.664 Y108.178 E21.29643
G1 X115.178 Y107.555 E21.33585
G1 X114.737 Y106.924 E21.37426
G1 X114.499 Y106.514 E21.39791
G1 X114.125 Y105.82 E21.43724
G1 X113.848 Y105.249 E21.4689
G1 X112.203 Y101.45 E21.67544
G1 X103.035 Y101.45 E22.13283
G1 X102.584 Y101.436 E22.15535
G1 X101.339 Y101.36 E22.21758
G1 X100.575 Y101.274 E22.25593
G1 X100.065 Y101.17 E22.2819
G1 X99.097 Y100.938 E22.33156
G1 X98.002 Y100.584 E22.38897
G1 X97.08 Y100.204 E22.43873
G1 X96.385 Y99.874 E22.47711
G1 X96.035 Y99.672 E22.49727
G1 X95.186 Y99.152 E22.54694
G1 X94.255 Y98.477 E22.60431
G1 X93.496 Y97.831 E22.65404
G1 X92.937 Y97.303 E22.6924
G1 X92.67 Y97.008 E22.71225
G1 X92.022 Y96.251 E22.76197
G1 X91.344 Y95.32 E22.81943
G1 X90.821 Y94.471 E22.86917
G1 X90.452 Y93.796 E22.90755
G1 X90.286 Y93.425 E22.92783
G1 X89.904 Y92.504 E22.97757
G1 X89.646 Y91.779 E23.01597
G1 X89.545 Y91.404 E23.03534
G1 X89.312 Y90.438 E23.08492
G1 X89.171 Y89.682 E23.12329
G1 X89.129 Y89.29 E23.14296
G1 X89.05 Y88.298 E23.1926
G1 X89.027 Y87.732 E23.22086
G1 X89.025 Y87.03 E23.25589
G1 X89.025 Y62.587 E24.47535
G1 X89.038 Y62.146 E24.49736
G1 X89.114 Y60.874 E24.56094
G1 X89.2 Y60.109 E24.59934
G1 X89.304 Y59.594 E24.62556
G1 X89.535 Y58.628 E24.67511
G1 X89.752 Y57.89 E24.71349
G1 X89.89 Y57.529 E24.73277
G1 X90.27 Y56.607 E24.78252
G1 X90.6 Y55.912 E24.8209
G1 X90.8 Y55.565 E24.84089
G0 F3600 X91.141 Y55.774
G1 F1800 X91.661 Y54.924 E24.8906
G1 X92.301 Y54.041 E24.94501
G1 X92.946 Y53.283 E24.99466
G1 X93.724 Y52.502 E25.04966
G1 X94.483 Y51.852 E25.09951
G1 X95.363 Y51.21 E25.15386
G1 X96.21 Y50.688 E25.2035
G1 X97.201 Y50.181 E25.25903
G1 X98.122 Y49.799 E25.30878
G1 X99.159 Y49.461 E25.36319
G1 X100.127 Y49.227 E25.41288
G1 X101.217 Y49.053 E25.46795
G1 X102.211 Y48.974 E25.51769
G1 X102.765 Y48.952 E25.54535
G1 X112.464 Y48.95 E26.02924
G1 X114.15 Y45.052 E26.24112
G1 X114.363 Y44.605 E26.26583
G1 X114.779 Y43.804 E26.31086
G1 X115.159 Y43.159 E26.3482
G1 X115.444 Y42.761 E26.37263
G1 X115.925 Y42.136 E26.41197
G1 X116.412 Y41.568 E26.4493
G1 X116.688 Y41.295 E26.46867
G1 X117.267 Y40.753 E26.50824
G1 X117.84 Y40.271 E26.54559
G1 X118.174 Y40.035 E26.566
G1 X118.831 Y39.598 E26.60536
G1 X119.475 Y39.217 E26.64269
G1 X119.876 Y39.025 E26.66487
G1 X120.597 Y38.706 E26.70421
G1 X121.296 Y38.44 E26.74152
G1 X121.673 Y38.331 E26.7611
G1 X122.437 Y38.133 E26.80048
G1 X123.17 Y37.984 E26.83779
G1 X123.591 Y37.935 E26.85894
G1 X124.379 Y37.867 E26.8984
G1 X125.127 Y37.843 E26.93574
G1 X125.504 Y37.861 E26.95457
G1 X126.292 Y37.92 E26.99399
G1 X127.034 Y38.015 E27.03131
G1 X127.475 Y38.111 E27.05383
G1 X128.239 Y38.303 E27.09313
G1 X128.954 Y38.524 E27.13046
G1 X129.318 Y38.67 E27.15003
G1 X130.042 Y38.984 E27.1894
G1 X130.712 Y39.318 E27.22675
G1 X131.091 Y39.549 E27.2489
G1 X131.751 Y39.981 E27.28825
G1 X132.354 Y40.424 E27.32558
G1 X132.65 Y40.681 E27.34514
G1 X133.234 Y41.217 E27.38468
G1 X133.758 Y41.751 E27.42201
G1 X134.019 Y42.067 E27.44246
G1 X134.503 Y42.687 E27.4817
G1 X134.931 Y43.3 E27.519
G1 X135.146 Y43.671 E27.54039
G1 X135.522 Y44.368 E27.5799
G1 X135.785 Y44.91 E27.60996
G1 X137.534 Y48.95 E27.82959
G1 X146.965 Y48.95 E28.3001
G1 X147.392 Y48.963 E28.32142
G1 X148.637 Y49.039 E28.38365
G1 X149.38 Y49.124 E28.42096
G1 X149.841 Y49.219 E28.44444
G1 X150.809 Y49.451 E28.4941
G1 X151.844 Y49.786 E28.54837
G1 X152.764 Y50.165 E28.59802
G1 X153.751 Y50.666 E28.65324
G1 X154.601 Y51.186 E28.70295
G1 X155.484 Y51.826 E28.75736
G1 X156.242 Y52.471 E28.80701
G1 X157.023 Y53.249 E28.86201
G1 X157.673 Y54.008 E28.91187
G1 X158.315 Y54.888 E28.96621
G1 X158.837 Y55.735 E29.01585
G1 X159.343 Y56.724 E29.07127
G1 X159.725 Y57.644 E29.12097
G1 X160.064 Y58.685 E29.17559
G1 X160.298 Y59.654 E29.22532
G1 X160.472 Y60.741 E29.28025
G1 X160.551 Y61.733 E29.32989
G1 X160.573 Y62.265 E29.35646
G1 X160.575 Y62.851 E29.38569
G1 X160.575 Y87.537 E30.61728
G1 X160.56 Y87.999 E30.64034
G1 X160.484 Y89.147 E30.69774
G1 X160.394 Y89.89 E30.73508
G1 X160.307 Y90.313 E30.75663
